X: 535
T: Pan wugeng
L: 1/8
M: 2/4
K: A
E2E F [I:setbarnb 1]| 
A4 | 
e c B A/ F/ | 
E4 | 
AB3 | 
e cB2 | 
A B A F | 
E4 | 
A> cB2 | 
B e c B | 
c2E3/ F/ | 
A4 | 
c> B A F | 
E> FA2 | 
F E C B, | 
E4 |]

@@@ Tune index: 9409
